X: 32865
T: Porthole Of The Kelp
R: reel
M: 4/4
K: Ddorian
DE|:F2DE FDD2|FEFG ECC2|F2DE F2Ac|FDEG EDDE|
F2DE FEAE|cEGE EDC2|DEFG Add2|1 cAGE EDD2:|2 cAGE EDDF||
|:Add2 dcAG|F2DF ECC2|d2cd dcAG|BGAc d3e|
fdef cAAG|EDGD EDC2|DEFG Add2|1 cAGE EDDF:|2 cAGE EDD2||

